X:1
T:Jupiter Chorale
T:Jupiter, the Bringer of Jollity
T:Gustav Holst Arr. Brendan Akins 
T:Jupiter Chorale
T:The Planets, Op. 32, IV. Jupiter, the Bringer of Jollity
C:Gustav Holst
%%score 1 2 3 4
L:1/8
Q:1/4=65
M:3/4
K:Eb
V:1 tenor nm="Trombone" snm="Tbn."
V:2 tenor nm="Trombone" snm="Tbn."
V:3 bass nm="Trombone" snm="Tbn."
V:4 bass nm="Bass Trombone" snm="B. Tbn."
V:1
!p! (G,B, C2 (CE | D>)!tenuto!B, (EF E2) | !tenuto!D2 (CD C2) | B,2 !breath!G,4) | %4
!<(! ((G,B, C2) (CE | D>)!tenuto!B, (EF G2) | !tenuto!G2 (GF E2) | F2 !breath!E4)!<)! | %8
!f! ((B,G, F,2) !tenuto!F,2 | (E,G, F,2) !tenuto!B,,2 | (B,G, F,2) !tenuto!F,2 | %11
!>(! (G,B, !breath!C4)) | ((CD E2) !tenuto!D2 | (C2 B,2 E2)!>)! |!mf! (G,2 F,E,) !tenuto!F,2 | %15
 G,2 !breath!B,4) |!f! (G,B,!>(! C2 (CE | D>)!tenuto!B, (EF E2) | !tenuto!D2 (CD C2) | %19
 B,2 !breath!G,4)!>)! |!p! (G,B, C2 (CE | D>)!tenuto!B, (EF G2) | !tenuto!G2 (GF E2) | F2 E4) |] %24
V:2
!p! (G,B, C2 (CE | D>)!tenuto!B, (EF E2) | !tenuto!B,2 (CD C2) | B,2 !breath!G,4) | %4
!<(! ((G,B, C2) (CE | D>)!tenuto!B, (EF G2) | !tenuto!B,2 (CF E2) | C2 !breath!E4)!<)! | %8
!f! ((B,G, F,2) !tenuto!F,2 | (E,G, F,2) !tenuto!B,,2 | (B,G, F,2) !tenuto!F,2 | %11
!>(! (G,B, !breath!C4)) | ((CD C2) !tenuto!B,2 | (A,2 G,2 E,2)!>)! |!mf! (E,2 F,E,) !tenuto!F,2 | %15
 G,2 !breath!F,4) |!f! (E,B,!>(! E,2 (CE | F,>)!tenuto!B, (B,F E2) | !tenuto!B,2 (CD C2) | %19
 D,2 !breath!G,4)!>)! |!p! (G,B, C2 (CE | D>)!tenuto!B, (EF G2) | !tenuto!G,2 (GF E2) | A,2 G,4) |] %24
V:3
!p! (G,,B,, E,2 (C,2 | F,2) (E,2 G,E,) | E,2 E,2 G,2 | D,2 !breath!E,4) |!<(! ((D,2 E,2) z2 | %5
 F,2 E,2) z2 | (E,G, E,2) z2 | (A,2 z2 G,2!<)! |!mf! E,2 F,2) z2 | (G,2 B,2 z2 | E,2 F,2) z2 | %11
!>(! (B,2 A,2 G,2 | A,2 G,2 G,2 | E,2 E,2 E,2)!>)! |!mp! !tenuto!E,2 (F,2 A,2 | %15
 B,2 D,2) !tenuto!C,2 |!f! ((B,,2!>(! E,2) z2 | F,2 E,2 z2 | E,2 E,2 z2 | F,2 !breath!E,4)!>)! | %20
!p! (D,2 E,2 z2 | F,2 E,2 z2 | E,G, E,2 z2 | A,2 G,4) |] %24
V:4
!p! (C,,E,, A,,2 (A,,2 | B,,2) (G,,2 C,2) | G,,2 A,,2 E,,2 | B,,2 !breath!C,4) | %4
!<(! ((B,,2 A,,2) z2 | B,,2 G,,2) z2 | (E,,G,, A,,2) z2 | (C,2 z2 E,2!<)! |!ff! G,,2 B,,2) z2 | %9
 (C,2 D,2 z2 | G,,2 D,2) z2 |!>(! (E,2 A,2 G,2 | F,2 C,2 B,,2 | A,,2 G,,2 A,,2)!>)! | %14
!f! !tenuto!E,,2 (A,,2 F,2 | E,2 D,2) !tenuto!C,2 |!f! ((B,,2!>(! A,,2) z2 | B,,2 G,,2 z2 | %18
 G,,2 A,,2 z2 | B,,2 !breath!C,4)!>)! |!p! (B,,2 A,,2 z2 | B,,2 G,,2 z2 | E,,G,, A,,2 z2 | %23
 C,2 E,,4) |] %24

